X: 77
T: Allahümme Yâ Celîl
C: Ali Ufkî
O: Turkey
F: http://compmusic.upf.edu/node/140
N: tahir--tesbih--sofyan--allahumme--ali_ufki
N: makam= tahir
N: form= tesbih
N: usul= sofyan = 4/4
M: 4/4
L: 1/16
K: C _2/4B ^3/4f  
Q: 1/4=54
%%MIDI tuningsystem comma53
g4 c'4 b4 a4  | a4 bc'ba gagf e2d2  | \
w:  Al la hüm me   |  yâ  *  *  ce *  lîl  *  *  *  *  u   | 
g2fe f2g2 a4 a2gb  | 
w:  yâ  *  *  ceb *  bar   | 
a4 a2gb a8  | b2c'2 b2a2 g4 f4  | e4 gfeg f4 e2d2  | \
w:   |  yâ  *  *  *  Al lah   |  yâ  *  *  ce *  lîl  *  (u)   | 
c3B ABcd dcBc B2A2  | 
w:  yâ  *  ceb *  *  *  bar   | 
A4 A2FG A8  | z2g2 c'6b2 a4  | a4 bc'ba gagf e2d2  | 
w:   |  Bi  ham di ke   |  yâ  *  *  a *  ziz  *  *  *  *  (u)   | 
g2fe f2g2 a4 a2gb  | a4 a2gb a8  | b2c'2 b2a2 g4 f4  | \
w:  yâ  *  *  gaf *  far    |   |  Yâ  *  *  *  Al lah   | 
e4 gfeg f4 e2d2  | 
w:  yâ  *  *  a *  ziz  *  (u)   | 
c3B ABcd dcBc B2A2  | A4 A2FG A8  | z2c'2 c'/d'/e'2c' c'2c'/b/a abc'd'  | 
w:  yâ  *  gaf *  *  *  far    |   |  Ce nâ *  *  *  be ke  *  *  yâ   | 
d'c'bc' b2a2 a4 c'4  | z2c'2 c'/d'/e'2c' c'2c'/b/a abc'd'  | 
w:  Al *  *  *  *  *  lah    |  Ce nâ *  *  *  be ke  *  *  yâ   | 
d'c'bc' b2a2 a4 a4  | a4 a4 bc'ba g2f2  | \
w:  Al *  *  *  *  *  lah    |  Ner cû  af *  *  *  ve ke   | 
g2a2 agfg f2e2 e2a2  | 
w:  yâ  *  dey *  *  *  yan    | 
a4 a4 bc'ba g2f2  | g2a2 agfg f2e2 e4  | \
w:  Ner cû  af *  *  *  ve ke   |  yâ  *  dey *  *  *  yan    | 
e6e2 fgfe d2cB  | 
w:  Yâ  mü cî *  *  *  bes  | 
ABcd dcBc B2A2 A2e2  | e6e2 fgfe d2cB  | 
w:  sa *  *  *  *  *  i *  lin  *  *  (ni)    |  Yâ  mü cî *  *  *  bes  | 
ABcd dcBc B2A2 A4  | A4 A4 d2e2 e4  | \
w:   |  Iğ fir  *  le nâ  | 
e3d d2cB c2cB A4  | 
w:  ver  *  ham *  *  *  le  *  nâ    | 
A4 A4 d2e2 e4  | e3d d2cB c2cB A4  | \
w:  Iğ fir  *  le nâ  |  ver  *  ham *  *  *  le  *  nâ    | 
e3d d2cB ABcd dcBc  | 
w:  Yâ  *  *  e *  mâ *  *  *  nel   | 
B2A2 A2FG A6z2  | e3d d2cB ABcd dcBc  | \
w:  hâ *  *  i *  fin    |  Yâ  *  *  e *  mâ *  *  *  nel   | 
B2A2 A2FG A6z2  | 
w:  hâ *  *  i *  fin    | 
|


